actions/24/go-bottom-symbolic.svg

<?xml version="1.0" encoding="UTF-8" standalone="no"?>
<svg
   xmlns:dc="http://purl.org/dc/elements/1.1/"
   xmlns:cc="http://creativecommons.org/ns#"
   xmlns:rdf="http://www.w3.org/1999/02/22-rdf-syntax-ns#"
   xmlns:svg="http://www.w3.org/2000/svg"
   xmlns="http://www.w3.org/2000/svg"
   id="svg6"
   version="1.1"
   width="24"
   height="24">
  <metadata
     id="metadata12">
    <rdf:RDF>
      <cc:Work
         rdf:about="">
        <dc:format>image/svg+xml</dc:format>
        <dc:type
           rdf:resource="http://purl.org/dc/dcmitype/StillImage" />
        <dc:title></dc:title>
      </cc:Work>
    </rdf:RDF>
  </metadata>
  <defs
     id="defs10" />
  <path
     d="m 19,13 c 0,-0.554 -0.466399,-1 -1,-1 H 14 V 4 C 14,3.446 13.554,3 13,3 H 10 C 9.446,3 9,3.446 9,4 v 8 H 5 c -0.554,0 -1,0.446 -1,1 0,0.298584 0.129746,0.565122 0.335938,0.748047 l 6.478515,6.978515 C 10.993548,20.895646 11.23426,21 11.5,21 c 0.26574,0 0.506452,-0.104355 0.685547,-0.273438 l 6.478515,-6.978515 C 18.870253,13.565122 19,13.298584 19,13 Z m -7.5,8 H 5 c -0.554,0 -1,0.446 -1,1 v 1 c 0,0.554 0.446,1 1,1 h 13 c 0.554,0 1,-0.446 1,-1 v -1 c 0,-0.554 -0.446,-1 -1,-1 z"
     style="opacity:1;fill:#555761;stroke:none;stroke-width:4;stroke-linecap:round;stroke-linejoin:round;stop-color:#000000"
     id="path873-5-3" />
</svg>

<svg
        xmlns='http://www.w3.org/2000/svg'
        xmlns:svg='http://www.w3.org/2000/svg'
        id='svg6'
        width='24'
        height='24'>
  <path
          id='path873-5-3'
          opacity='1'
          fill='url(#gpa:foreground) #555761'
          fill-opacity='1'
          fill-rule='nonzero'
          stroke='none'
          stroke-width='4'
          stroke-linecap='round'
          stroke-linejoin='round'
          d='M 19 13 C 19 12.446, 18.5336 12, 18 12 L 14 12 L 14 4 C 14 3.446, 13.554 3, 13 3 L 10 3 C 9.446 3, 9 3.446, 9 4 L 9 12 L 5 12 C 4.446 12, 4 12.446, 4 13 C 4 13.2986, 4.12975 13.5651, 4.33594 13.748 L 10.8145 20.7266 C 10.9935 20.8956, 11.2343 21, 11.5 21 C 11.7657 21, 12.0065 20.8956, 12.1855 20.7266 L 18.6641 13.748 C 18.8703 13.5651, 19 13.2986, 19 13 Z M 11.5 21 L 5 21 C 4.446 21, 4 21.446, 4 22 L 4 23 C 4 23.554, 4.446 24, 5 24 L 18 24 C 18.554 24, 19 23.554, 19 23 L 19 22 C 19 21.446, 18.554 21, 18 21 Z'
          class="foreground">
  </path>
</svg>
